assets/Cherries/Flat/cherries_flat.svg

<svg width="32" height="32" viewBox="0 0 32 32" fill="none" xmlns="http://www.w3.org/2000/svg">
<path d="M19.7017 3.25889C9.84736 5.12143 7.50755 13.8713 7.59383 17.1642L9.46094 17.1055C9.63334 13.9151 10.8292 11.346 12.4315 9.44483L12.437 9.43828C12.9301 8.85319 13.2714 8.44817 13.7695 9.21484L19.6875 18.3086L21.359 17.415L15.309 8.09709C14.8164 7.33203 14.9844 7.13281 15.5856 6.73645C16.4003 6.2383 17.2236 5.86062 18.005 5.60275C18.6992 5.379 18.8671 5.73057 18.9397 5.90473C20.6994 10.1312 22.7656 11.7774 23.9439 12.2607C25.7734 12.9532 27.1367 13.1876 29.5665 12.3613C29.8007 12.2813 29.8828 12.0162 29.6959 11.7142C29.6959 11.7142 28.0568 9.14672 26.4604 6.29299C26.4604 6.29299 24.6384 2.48573 19.7017 3.25889Z" fill="#9AD02B"/>
<path fill-rule="evenodd" clip-rule="evenodd" d="M15 23.5C15 27.0899 12.0899 30 8.5 30C4.91015 30 2 27.0899 2 23.5C2 19.9101 4.91015 17 8.5 17C12.0899 17 15 19.9101 15 23.5ZM30.03 23.5C30.03 27.0899 27.1199 30 23.53 30C19.9402 30 17.03 27.0899 17.03 23.5C17.03 19.9101 19.9402 17 23.53 17C27.1199 17 30.03 19.9101 30.03 23.5Z" fill="#F8312F"/>
</svg>

<svg xmlns="http://www.w3.org/2000/svg" width="32" height="32" fill="none"><path fill="#9AD02B" d="M19.702 3.259C9.847 5.12 7.508 13.87 7.594 17.164l1.867-.059c.172-3.19 1.368-5.759 2.97-7.66l.006-.007c.493-.585.834-.99 1.333-.223l5.918 9.094 1.671-.894-6.05-9.318c-.493-.765-.325-.964.277-1.36a11.718 11.718 0 0 1 2.419-1.134c.694-.224.862.128.935.302 1.76 4.226 3.826 5.872 5.004 6.356 1.83.692 3.193.927 5.623.1.234-.08.316-.345.129-.647 0 0-1.64-2.567-3.236-5.421 0 0-1.822-3.807-6.758-3.034Z"/><path fill="#F8312F" fill-rule="evenodd" d="M15 23.5a6.5 6.5 0 1 1-13 0 6.5 6.5 0 0 1 13 0Zm15.03 0a6.5 6.5 0 1 1-13 0 6.5 6.5 0 0 1 13 0Z" clip-rule="evenodd"/></svg>
